X:435
T: Patsy Hanley's B
S: "Sully's Irish Music Book"
Z: B.Black
L: 1/8
M: 4/4
R: reel
K: D
e|f3d edBd|f3e fg a2|f3d edBd|ABdf efde|
f3d edBd|f3e fg a2|bf f2 afdB|ABdf ef d||
B|AF F2 EDEF|D2 FD EDEF|AFBF AFEF|defd ef d :|
